X:1
T:Title
%%score ( 1 2 ) ( 3 4 )
L:1/8
M:3/4
K:Ab
V:1 treble nm="Grand Piano, Soprano"
V:2 treble 
V:3 bass nm="Choir Pad, Stars of December"
V:4 bass 
V:1
 [A,C]2 [B,D]2 [_C=D]2 | [CE]2 [Ec]4 | [_Ge]2 [FAf]2 [=Ed=e]2 | [Ece]6 | [Ec]2 [Ed]2 [E=A]2 | %5
w: By~Ira~Bishop~Wilson * *|||||
 [Ec]2 [DB]4 | [CA]2 [DB]2 [Ec]2 | [CE]6 | [A,C]2 [B,D]2 [_C=D]2 | [CE]2 [Ec]4 | %10
w: |||||
 [_Ge]2 [FAf]2 [Fdf]2 | [=Ec=e]6 | [Ec]2 [Fd]2 [E=A]2 | [Ec]2 [DB]4 | [=DG]2 [DA]2 [DF]2 | %15
w: |||||
 E2 [Ee]2 [Ed]2 | [CEc]2 [CEB]2 [CEA]2 | z2 G4 | [CEB]2 [CEA]2 C2 | z2 F4 | [CE]2 [CA]2 [DB]2 | %21
w: ||||||
 [Ec]2 [E=Ae]4 | [=Dc]2 [DB]2 [DF]2 | [Ec]2 [DEB]4 | [CEc]2 [CEB]2 [CEA]2 | z2 G4 | %26
w: |||||
 [CEB]2 [CEA]2 C2 | z2 F4 | [CE]2 [EA]2 [EGB]2 | [EAc]2 [_Gce]4 | [FBd]2 [DF]2 [DGB]2 | [CEA]6- | %32
w: ||||||
 [CEA]2 z2 z2 |] %33
w: |
V:2
 x6 | x6 | x6 | x6 | x6 | x6 | x6 | x6 | x6 | x6 | x6 | x6 | x6 | x6 | x6 | x6 | x6 | %17
 [CEc]2 [CE]2 [CE]2 | x6 | [A,CG]2 [A,C]2 [A,C]2 | x6 | x6 | x6 | x6 | x6 | [CEc]2 [CE]2 [CE]2 | %26
 x6 | [A,CG]2 [A,C]2 [A,C]2 | x6 | x6 | x6 | x6 | x6 |] %33
V:3
 A,2 G,2 F,2 | [A,,E,]2 [E,A,]2 [E,A,]2 | [C,,C,]2 [D,,D,]2 [D,A,]2 | A,,2 [E,A,C]2 [E,A,C]2 | %4
 E,,2 [E,G,B,]2 [E,_G,C]2 | E,,2 [E,G,]2 [E,G,]2 | A,,2 [E,A,C]2 [E,A,C]2 | A,,2 [E,A,]2 [E,A,]2 | %8
 A,2 G,2 F,2 | [A,,E,]2 [E,A,]2 [E,A,]2 | [C,,C,]2 [D,,D,]2 [B,,G,]2 | G,2 A,2 B,2 | %12
 F,,2 [F,=A,]2 [F,C]2 | B,,2 [F,B,]2 [F,B,]2 | [B,,B,]2 [B,,F,]2 [B,,A,]2 | [E,G,]6 | [A,,A,]6 | %17
 [E,,E,]6 | [A,,A,]6 | [E,,E,]6 | [A,,A,]2 [A,,A,]2 [G,,G,]2 | [_G,,_G,]2 [F,,F,]2 [F,=A,C]2 | %22
 [B,,,B,,]2 [F,A,B,]2 [F,A,B,]2 | [E,,E,]2 [F,,F,]2 [G,,G,]2 | [A,,A,]6 | [E,,E,]6 | [A,,A,]6 | %27
 [E,,E,]6 | [A,,A,]2 [A,,,A,,]2 [C,,C,]2 | [E,,E,]2 [A,,A,]2 [=A,,=A,]2- | [A,,A,]2 [B,,B,]4 | %31
 [E,,E,]2 [A,,A,]4- | [A,,A,]4 z2 |] %33
V:4
 x6 | x6 | x6 | x6 | x6 | x6 | x6 | x6 | x6 | x6 | x6 | C,6 | x6 | x6 | x6 | x6 | x6 | x6 | x6 | %19
 x6 | x6 | x6 | x6 | x6 | x6 | x6 | x6 | x6 | x6 | x6 | x6 | x6 | x6 |] %33

